!!!!SEGMENT: pl-wn--sd-xvi-o-271_anonim--kancjonal-zamoyskich-piesn-ktora-w-sobie-zamyka-krotka-nauke-modlmy-sie-ojcu-swemu.krn
!!!cenid: 15xx:827
!!!COM: Anonim
!!!COM-rismID: pe30004985
!!!CDT:
!!!CNT:
!!!GTL: Kancjonał Zamoyskich
!!!OTL: Pieśń która w sobie zamyka krótką naukę/Módlmy się ojcu swemu
!!!PDT: 1558
!!!AGN:
!!!SMS-siglum: PL-Wn
!!!SMS-shelfmark: SD XVI.O.271
!!!SMS-shelfwork: G
!!!SMS-variant:
!!!SMS-altvar:
!!!NIFC-rismSourceID: 990072127
!!!AIN: 1 alto 1 bass 1 soprn 1 tenor
!!!NIFC-islandoraID:
!!!URL-pdf-islandora:
!!!URL-scan: https://polona.pl/item/piesn-ktora-wsobie-zamyka-krothka-nauke-y-napominanie-ku-modlitwie-z-wykladem-pacierza,MTE3MTU0Mw/3 @EN{Scan on Polona} @PL{Skany w portalu Polona}
!!!ONB-nifc: UWAGA: proszę zapisywać tylko teksty występujące bezpośrednio pod nutami
!!!key: a:aeo
**kern	**text	**mod-text	**kern	**text	**mod-text	**kern	**text	**mod-text	**kern	**text	**mod-text
*part4	*part4	*part1	*part3	*part3	*part1	*part2	*part2	*part1	*part1	*part1	*part1
*staff4	*staff4	*staff1	*staff3	*staff3	*staff1	*staff2	*staff2	*staff1	*staff1	*staff1	*staff1
*I"BAS.	*	*	*I"TENOR	*	*	*I"ALT.	*	*	*I"CANTVS.	*	*
*mI"Basso	*	*	*mI"Tenore	*	*	*mI"Alto	*	*	*mI"Soprano	*	*
*I'B	*	*	*I'T	*	*	*I'A	*	*	*I'S	*	*
*Ibass	*	*	*Itenor	*	*	*Ialto	*	*	*Isoprn	*	*
*ICvox	*	*	*ICvox	*	*	*ICvox	*	*	*ICvox	*	*
*clefF3	*	*	*clefC3	*	*	*clefC2	*	*	*clefG2	*	*
*mclefF4	*	*	*mclefGv2	*	*	*mclefG2	*	*	*	*	*
*k[]	*	*	*k[]	*	*	*k[]	*	*	*k[]	*	*
*a:aeo	*	*	*a:aeo	*	*	*a:aeo	*	*	*a:aeo	*	*
*M2/1	*	*	*M2/1	*	*	*M2/1	*	*	*M2/1	*	*
*met(C|)	*	*	*met(C|)	*	*	*met(C|)	*	*	*met(C|)	*	*
*mmet(c|)	*	*	*mmet(c|)	*	*	*mmet(c|)	*	*	*mmet(c|)	*	*
=1-	=1-	=1-	=1-	=1-	=1-	=1-	=1-	=1-	=1-	=1-	=1-
!!LO:TX:a:t=P:problem:w źródle wszystkie caudy po środku
1A	Modl-	Módl-	1A	Modl-	Módl-	1e	Modl-	Módl-	1a	Modl-	Módl-
1F	-my	-my	1c	-my	-my	1f	-my	-my	1a	-my	-my
=2-	=2-	=2-	=2-	=2-	=2-	=2-	=2-	=2-	=2-	=2-	=2-
2F/	ſie	ſie	2c/	ſie	ſie	2f\	ſie	ſie	2a/	ſie	ſie
1D	oy-	Oj-	1d	oy-	Oj-	1a	oy-	Oj-	1dd	oy-	Oj-
2D/	-cu	-cu	2d\	-cu	-cu	2a\	-cu	-cu	2dd\	-cu	-cu
=3-	=3-	=3-	=3-	=3-	=3-	=3-	=3-	=3-	=3-	=3-	=3-
1A	ſwe-	swe-	1e	ſwe-	swe-	1a	ſwe-	swe-	1cc	ſwe-	swe-
1A	mu. etc.	-mu	1e	-mu.	-mu	1a	-mu	-mu	1cc	-mu.	-mu
=4-	=4-	=4-	=4-	=4-	=4-	=4-	=4-	=4-	=4-	=4-	=4-
1r	.	.	1r	.	.	1r	.	.	1r	.	.
1A	.	w_po-	1e	.	w_po-	1a	w po-	w_po-	1cc	.	w_po-
=5-	=5-	=5-	=5-	=5-	=5-	=5-	=5-	=5-	=5-	=5-	=5-
!	!	!	!	!	!	!	!	!	!LO:N:vis=0	!	!
1G	.	-ko-	1g	.	-ko-	1d	-ko.	-ko-	1b	.	-ko-
2G\	.	-rze	2g\	.	-rze	2d/	.	-rze	2cc/	.	-rze
1D/	.	a	1f\	.	a	1a\	.	a	1a/	.	a
=6-	=6-	=6-	=6-	=6-	=6-	=6-	=6-	=6-	=6-	=6-	=6-
.	.	.	.	.	.	.	.	.	.	.	.
2D/	.	ci-	2f\	.	ci-	2a\	.	ci-	1dd	.	ci-
1A	.	-cho-	1e	.	-cho-	1a	.	-cho-	.	.	.
.	.	.	.	.	.	.	.	.	2cc\	.	-cho-
=7-	=7-	=7-	=7-	=7-	=7-	=7-	=7-	=7-	=7-	=7-	=7-
1D	.	-ści	1d	.	-ści	1f	.	-ści	1dd	.	-ści
1r	.	.	1r	.	.	1r	.	.	1r	.	.
=8-	=8-	=8-	=8-	=8-	=8-	=8-	=8-	=8-	=8-	=8-	=8-
!LO:TX:a:t=P:problem:w źródle nad nuta dopisany kawałek dodatkowej linii	!	!	!	!	!	!	!	!	!	!	!
1d	.	Te-	1d	.	Te-	1a	.	Te-	1dd	.	Te-
!LO:SIC:v:t=custos A	!	!	!LO:SIC:v:t=custos e	!	!	!	!	!	!LO:SIC:v:t=custos cc	!	!
1A	.	-mu	1e	.	-mu	1a	.	-mu	1cc	.	-mu
!LO:LB:g=original	!	!	!LO:LB:g=original	!	!	!	!	!	!LO:LB:g=original	!	!
=9-	=9-	=9-	=9-	=9-	=9-	=9-	=9-	=9-	=9-	=9-	=9-
!	!	!	!	!	!	!LO:SIC:v:t=custos g	!	!	!	!	!
2A\	.	a	2e\	.	a	2a\	.	a	2cc\	.	a
!	!	!	!	!	!	!LO:LB:g=original	!	!	!	!	!
1c	.	nie	1e	.	nie	2.g\	.	nie	1cc	.	nie
.	.	.	.	.	.	4f\	.	.	.	.	.
2G\	.	in-	2g\	.	in-	1e\	.	in-	2b/	.	in-
=10-	=10-	=10-	=10-	=10-	=10-	=10-	=10-	=10-	=10-	=10-	=10-
2A\	.	-ne-	1f	.	-ne-	.	.	.	2cc\	.	-ne-
!LO:TX:a:t=P:problem:w źródle nuta przekreślona ołówkiem	!	!	!	!	!	!	!	!	!	!	!
2B\	.	.	.	.	.	2d/	.	-ne-	2dd\	.	.
1c	.	-mu	1e	.	-mu	1e	.	-mu	1g	.	-mu
=11-	=11-	=11-	=11-	=11-	=11-	=11-	=11-	=11-	=11-	=11-	=11-
1r	.	.	1r	.	.	1r	.	.	1r	.	.
1c	.	jenż	1e	.	jenż	1g	.	jenż	1cc	.	jenż
=12-	=12-	=12-	=12-	=12-	=12-	=12-	=12-	=12-	=12-	=12-	=12-
1G	.	jest	1d	.	jest	1g	.	jest	1b	.	jest
2c\	.	na	2c/	.	na	2e/	.	na	2g/	.	na
1C/	.	wy-	1e\	.	wy-	1g\	.	wy-	2.cc\	.	wy-
.	.	.	.	.	.	.	.	.	.	.	.
=13-	=13-	=13-	=13-	=13-	=13-	=13-	=13-	=13-	=13-	=13-	=13-
.	.	.	.	.	.	.	.	.	.	.	.
.	.	.	.	.	.	.	.	.	4b\	.	.
2D/	.	-so-	4d\	.	-so-	2f\	.	-so-	1a	.	-so-
.	.	.	4c/	.	.	.	.	.	.	.	.
1E	.	-ko-	1B	.	-ko-	1e	.	-ko-	.	.	.
!	!	!	!	!	!	!	!	!	!LO:SIC:s=2g#i	!	!
.	.	.	.	.	.	.	.	.	2g/	.	-ko-
=14-	=14-	=14-	=14-	=14-	=14-	=14-	=14-	=14-	=14-	=14-	=14-
1A	.	-ści.	1A	.	-ści.	1e	.	-ści.	1a	.	-ści.
1r	.	.	1r	.	.	1r	.	.	1r	.	.
=15-	=15-	=15-	=15-	=15-	=15-	=15-	=15-	=15-	=15-	=15-	=15-
1A	.	Ten	1e	.	Ten	1a	.	Ten	1cc	.	Ten
1D	.	się	1d	.	się	1f	.	się	1a	.	się
=16-	=16-	=16-	=16-	=16-	=16-	=16-	=16-	=16-	=16-	=16-	=16-
!	!	!	!	!	!	!	!	!	!LO:SIC:v:t=custos b	!	!
2D/	.	nad	2d\	.	nad	2f\	.	nad	2a/	.	nad
!	!	!	!	!	!	!	!	!	!LO:LB:g=original	!	!
!	!	!	!	!	!	!	!	!	!LO:TX:a:t=P:problem:w źródle dopisane ołówkiem nuty przed pięciolinią 	!	!
!LO:SIC:v:t=custos F	!	!	!	!	!	!	!	!	!	!	!
!LO:TX:a:t=P:problem:w źródle nuta przekreślona ołówkiem, później za pięciolinia dopisane ółówkiem nuty oraz kawałek pieciolinii	!	!	!	!	!	!	!	!	!	!	!
!	!	!	!LO:SIC:v:s=1d	!	!	!	!	!	!	!	!
2G\	.	na-	1c	.	na-	2g\	.	na-	2b/	.	na-
!LO:LB:g=original	!	!	!	!	!	!	!	!	!	!	!
2F\	.	-mi	.	.	.	2a\	.	-mi	2a/	.	-mi
!	!	!	!LO:SIC:v:t=custos B	!	!	!LO:SIC:v:t=custos f	!	!	!	!	!
!	!	!	!LO:SIC:v:s=2B	!	!	!	!	!	!	!	!
2G\	.	zmi-	2A/	.	-mi	1g\	.	zmi-	2b/	.	zmi-
!	!	!	!LO:LB:g=original	!	!	!LO:LB:g=original	!	!	!	!	!
=17-	=17-	=17-	=17-	=17-	=17-	=17-	=17-	=17-	=17-	=17-	=17-
!	!	!	!LO:SIC:v:s=2c	!	!	!	!	!	!LO:SIC:v:s=2g	!	!
2E/	.	-łu-	2B/	.	zmi-	.	.	.	2f/	.	-łu-
2F/	.	.	2A/	.	-łu-	2f\	.	-łu-	2cc\	.	.
1G	.	-je	1G	.	-je	1d	.	-je	1b	.	-je
=18-	=18-	=18-	=18-	=18-	=18-	=18-	=18-	=18-	=18-	=18-	=18-
2r	.	.	2r	.	.	2r	.	.	2r	.	.
2G\	.	oż	2G/	.	oż	2d/	.	oż	2b/	.	oż
1D	.	Go	1d	.	Go	1f	.	Go	1a	.	Go
=19-	=19-	=19-	=19-	=19-	=19-	=19-	=19-	=19-	=19-	=19-	=19-
2D/	.	pro-	2d\	.	pro-	2f\	.	pro-	2a/	.	pro-
1G	.	sić	1d	.	sić	1g	.	sić	1b	.	sić
2E/	.	bę-	2e\	.	bę-	2g\	.	bę-	2cc\	.	bę-
=20-	=20-	=20-	=20-	=20-	=20-	=20-	=20-	=20-	=20-	=20-	=20-
1D	.	-dzie-	1f	.	-dzie-	1a	.	-dzie-	1dd	.	-dzie-
!	!	!	!	!	!	!LO:TX:t=P:problem:# below	!	!	!	!	!
!	!	!	!	!	!	!LO:MO:mod=!null	!	!	!	!	!
!	!	!	!	!	!	!LO:N:acc=#	!	!	!	!	!
1A	.	-my	1e	.	-my	1a	.	-my	1cc	.	-my
!	!	!	!	!	!	!LO:LB:g=original	!	!	!	!	!
=21-	=21-	=21-	=21-	=21-	=21-	=21-	=21-	=21-	=21-	=21-	=21-
1r	.	.	1r	.	.	1r	.	.	1r	.	.
1c	.	z_ła-	1e	.	z_ła-	1g	.	z_ła-	1cc	.	z_ła-
=22-	=22-	=22-	=22-	=22-	=22-	=22-	=22-	=22-	=22-	=22-	=22-
1G	.	-ski	1d	.	-ski	1g	.	-ski	1b	.	-ski
2c\	.	swej	2c/	.	swej	2e/	.	swej	2g/	.	swej
1C/	.	nam	1e\	.	nam	1g\	.	nam	2.cc\	.	nam
.	.	.	.	.	.	.	.	.	.	.	.
=23-	=23-	=23-	=23-	=23-	=23-	=23-	=23-	=23-	=23-	=23-	=23-
.	.	.	.	.	.	.	.	.	.	.	.
!	!	!	!	!	!	!	!	!	!LO:SIC:v:t=custos a	!	!
.	.	.	.	.	.	.	.	.	4b/	.	.
!	!	!	!	!	!	!	!	!	!LO:LB:g=original	!	!
2D/	.	da-	4d\	.	da-	2f\	.	da-	1a	.	da-
.	.	.	4c\	.	.	.	.	.	.	.	.
1E	.	-ru-	1B	.	-ru-	1e	.	-ru-	.	.	.
!	!	!	!	!	!	!	!	!	!LO:SIC:s=2g#i	!	!
.	.	.	.	.	.	.	.	.	2g/	.	-ru-
=24-	=24-	=24-	=24-	=24-	=24-	=24-	=24-	=24-	=24-	=24-	=24-
!LO:SIC:s=0AA;	!	!	!LO:SIC:s=0A;	!	!	!LO:SIC:s=0e;	!	!	!LO:SIC:s=0a;	!	!
0AAl	.	-je.	0Al	.	-je.	0el	.	-je.	0al	.	-je.
==	==	==	==	==	==	==	==	==	==	==	==
*-	*-	*-	*-	*-	*-	*-	*-	*-	*-	*-	*-
!!!system-decoration: [(*)]
!!LO:MO:ori
!!!RDF**kern: l = terminal long
!!LO:MO:mod
!! !!!RDF**kern: i = editorial accidental
!!LO:MO:end
!!!filter-modern: shed -e "s/TX(.*):t=P:/tx$1:t=P:/LG" | shed -e "s/^custos:/Xcustos:/I" | sic -sq | modori -m | autostem -r | tie -s | humtr -p | shed -e "s/-//B"
!!!ENC: Mateusz Solarz
!!!END: 2022-04-27
!!!ENC: Wojciech Jakubiak-Danek
!!!END: 2022-05-10
!!!ENC-modern: Andrzej Kubiczek
!!!END-modern: 2022-07-25
